X:223 
T:Waves of Clew Bay* (reel), The
F:file ID: cre.5/223waves
B:CRE5.142 (gan ainm)
M:4/4
%%Q:180
R:reel
K:D
dcAF GFEF|GBAF G2AB|=c2Bd cAG2|Addc dcec|
dcAF GFEF|GBAF G2AB|=c2Bd cAG2|Addc d3||
d|cdef g2ge|abaf ~g2 ge|cdef g2fg|afge dcBA|
(3Bcd ef g2ge|abaf g2ge|cdef g2fg|afge d4|]

%%%

